X: 58
T: No_150_Fox_Dance_Song_(e).krn
N: Derived from No_150_Fox_Dance_Song_(e).krn
%%abc-version 2.0
%%abcx-abcm2ps-target-version 5.9.1 (29 Sep 2008)
%%abc-creator hum2abc beta
%%abcx-conversion-date 2019/03/15 08:38:45
%%humdrum-veritas 2950987179
%%humdrum-veritas-data 2033324246
%%linebreak <none>
%%barnumbers 0
L: 1/8
M: 3/4
K: G clef=bass
[K:clef=bass][M:3/4]z3G, E,G,/G,/ ]|:  
D,2z G, E,G,/G,/ | 
D,2(G,E,) D,/D,/E, ||  
[M:2/4]D,2B,,B,, | 
B,,2D,/D,/E, | 
D,2z2 | 
z G, E,G,/G,/ :|]  
D,2B,,B,, | 
B,,2z2 |]  



